X:1
T:Fountains of Rome
T:Ottorino Respighi Engraved by R. L. Roy
T:Excerpt 1 Movement III: 1 measure before [11] to 4 measures after [16] 
T:Tuba
T:www.brassexcerpts.com This work is made available under the Creative Commons CC0 1.0 Universal Public Domain Dedication. You can copy, modify, distribute and perform the work, even for commercial purposes, all without asking permission.
T:www.brassexcerpts.com This work is made available under the Creative Commons CC0 1.0 Universal Public Domain Dedication. You can copy, modify, distribute and perform the work, even for commercial purposes, all without asking permission.
Z:www.brassexcerpts.com
Z:This work is made available under the Creative Commons CC0 1.0 Universal Public Domain Dedication.
Z:You can copy, modify, distribute and perform the work, even for commercial purposes, all without asking permission.
L:1/8
Q:1/4=142
M:3/4
K:C
V:1 bass nm="Piano" snm="Pno."
V:1
!fff! z4 !^!B,,,2 ||[K:E]"^11""^Allegro vivace" !^!E,,4 F,,2 | G,,>B,, C,2 z2 | z2 z2 B,,,2 | %4
 E,,4 B,,,2 | E,,,4 B,,,2 | E,,4 B,,,2 | E,,,4 B,,,2 | E,,4 B,,,2 | E,,,4 G,,,2 | E,,4 G,,,2 | %11
 E,,,4 B,,,2 | E,,4 G,,,2 | E,,,4!fff! B,,,2 | E,,4 B,,,2 |"^12" !>!E,,,4 !>!F,,,2 | %16
 =G,,,>A,,, !>!=C,,2 !>!E,,2 | =G,,3 .A,, !^!E,2- | E,!>!=D,!>!=C,!>!A,, (3!>!=G,,!>!E,,!>!=D,, | %19
 _D,,>_E,, D,,2 =F,,2 | !^!_D,4 =C,<_B,, | !^!=F,4 _D,2 | %22
 !>!=C,/!>!_B,,/!>!=F,,/!>!B,,/- B,,!>!F,, !>!_D,,2 | =A,,,4 =B,,,2 | ^C,,>^D,, F,,2 G,,2 | %25
 A,,3 =C, !^!=F,2- | =F,!>!=D, (3!>!=C,!>!A,,!>!=F,, !>!=D,,A,,/F,,/ |"^13" E,,,4 ^F,,,2 | %28
 G,,,>B,,, D,,2 E,,2 | F,,, z F,,,2 C,,2 | !^!A,,4 G,,<F,, | E,,,4 F,,,2 | G,,,>B,,, D,,2 E,,2 | %33
 F,,, z F,,,2 C,,2 | A,,4 G,,<F,, | E,,>F,, G,,2 z2 | F,,2 A,,2 !>!G,,<F,, | E,,,>F,,, G,,,2 E,,2 | %38
 F,,,2 A,,,2 G,,<F,, || %39
[K:Bb]"^14"[Q:3/4=60]"_(Ritmo di 3 battute)""^Più vivo"!fff! _E,, z"^(In uno)" z2 z2 | z6 | z6 | %42
 z6 | z6 | z6 | z6 | z6 | z6 |"_più"!f! G,,6 | F,,6 | E,,6 | !^!D,,4 F,,2 | D,,4 B,,2 | D,,4 D,2 | %54
 C,,4 E,,2 | C,,4 _A,,2 | C,,4 C,2 | C,,4 D,,2 | =E,,4 G,,2 | B,,,>C,, D,,2 =E,,2 | G,,4 A,,2 | %61
 B,,G,,F,,=E,,D,,C,, | B,,A,,G,,F,,=E,,D,, ||"^15"!fff!"_(Ritmo di 4 battute)" _D,,6- | D,,6- | %65
 D,,6- | D,,6 | _D,,>E,, F,,2 G,,2 |!<(! B,,,>C,, _D,,2 E,,2 | _D,,>E,, F,,2 G,,2 | %70
 B,,>C, _D,2 E,2!<)! ||[K:D][M:2/2][Q:1/4=106]!fff!"^Largamente" ^F,,8 | F,,,8- | F,,,8- | F,,,8- | %75
 F,,,8- | F,,, z z2 z2!fff! D,,>E,, | D,,4- D,,7/2 B,,/ | A,,4- A,,2 D,>E, |"_dim." A,,8 | F,,,8- | %81
 F,,,8- | F,,,8- |!f!"_dim." F,,,8- | F,,,8- | F,,,8- | F,,,8 |"^16"!mf!"_dim." =F,,,8- | F,,,8- | %89
 F,,,8- | F,,,8- | F,,, z z2 z4 |] %92

